svgs/thin/brackets-square.svg

<svg xmlns="http://www.w3.org/2000/svg" viewBox="0 0 448 512"><!-- Font Awesome Pro 6.0.0-alpha2 by @fontawesome - https://fontawesome.com License - https://fontawesome.com/license (Commercial License) --><path d="M56 48H136C140.406 48 144 44.422 144 40S140.406 32 136 32H56C33.938 32 16 49.938 16 72V440C16 462.062 33.938 480 56 480H136C140.406 480 144 476.422 144 472S140.406 464 136 464H56C42.781 464 32 453.234 32 440V72C32 58.766 42.781 48 56 48ZM392 32H312C307.594 32 304 35.578 304 40S307.594 48 312 48H392C405.219 48 416 58.766 416 72V440C416 453.234 405.219 464 392 464H312C307.594 464 304 467.578 304 472S307.594 480 312 480H392C414.062 480 432 462.062 432 440V72C432 49.938 414.062 32 392 32Z"/></svg>

<svg xmlns="http://www.w3.org/2000/svg" viewBox="0 0 448 512"><!--! Font Awesome Pro 6.3.0 by @fontawesome - https://fontawesome.com License - https://fontawesome.com/license (Commercial License) Copyright 2023 Fonticons, Inc. --><path d="M56 48h80c4.406 0 8-3.578 8-8S140.4 32 136 32h-80C33.94 32 16 49.94 16 72v368C16 462.1 33.94 480 56 480h80c4.406 0 8-3.578 8-8S140.4 464 136 464h-80C42.78 464 32 453.2 32 440V72C32 58.77 42.78 48 56 48zM392 32h-80c-4.406 0-8 3.578-8 8s3.594 8 8 8h80C405.2 48 416 58.77 416 72v368c0 13.23-10.78 24-24 24h-80c-4.406 0-8 3.578-8 8S307.6 480 312 480h80c22.06 0 40-17.94 40-40V72C432 49.94 414.1 32 392 32z"/></svg>
